dist/img/logo/bt-modernizasyon.svg

<svg width="65" height="65" viewBox="0 0 65 65" fill="none" xmlns="http://www.w3.org/2000/svg">
<g clip-path="url(#clip0_9_589)">
<path d="M33.6611 56.6948C36.9614 56.1851 39.913 53.5112 42.1008 49.4473C39.3989 48.4188 36.5494 47.8308 33.6611 47.7056V56.6948Z" fill="#F7F9FC"/>
<path d="M40.6678 55.3741C42.9777 54.5457 45.148 53.3706 47.1043 51.8892C46.1838 51.3324 45.2335 50.8264 44.2576 50.3735C43.3108 52.2067 42.1014 53.8903 40.6678 55.3741Z" fill="#F7F9FC"/>
<path d="M20.7542 50.3735C19.7778 50.8268 18.827 51.3333 17.906 51.8907C19.8623 53.3721 22.0327 54.5472 24.3425 55.3756C22.9089 53.8918 21.7011 52.2067 20.7542 50.3735Z" fill="#F7F9FC"/>
<path d="M31.3477 56.6948V47.7056C28.4591 47.8326 25.6096 48.4227 22.9081 49.4532C25.0959 53.5113 28.049 56.1851 31.3477 56.6948Z" fill="#F7F9FC"/>
<path d="M20.7542 14.6206C21.701 12.7874 22.9104 11.1023 24.344 9.61853C22.0341 10.4469 19.8638 11.622 17.9075 13.1034C18.828 13.6607 19.7783 14.1672 20.7542 14.6206Z" fill="#F7F9FC"/>
<path d="M8.25058 33.6597C8.55337 40.0231 11.3484 46.0116 16.0314 50.3307C17.2273 49.5655 18.4735 48.8819 19.7615 48.2847C17.8608 43.6395 16.8505 38.6783 16.7833 33.6597H8.25058Z" fill="#F7F9FC"/>
<path d="M8.25059 31.3402H16.7833C16.8496 26.3218 17.8588 21.3606 19.7585 16.7152C18.4709 16.117 17.2252 15.4324 16.0299 14.6663C11.3466 18.9857 8.55152 24.9748 8.24911 31.3388L8.25059 31.3402Z" fill="#F7F9FC"/>
<path d="M31.3477 33.6597H19.1204C19.184 38.3595 20.1306 43.0054 21.9109 47.3555C24.9242 46.1725 28.1123 45.4957 31.3463 45.3523L31.3477 33.6597Z" fill="#F7F9FC"/>
<path d="M31.3477 19.6447C28.1131 19.5005 24.9245 18.8226 21.9109 17.6385C20.1306 21.9886 19.184 26.6345 19.1204 31.3343H31.3477V19.6447Z" fill="#F7F9FC"/>
<path d="M33.6611 45.3493C36.8951 45.4927 40.0832 46.1696 43.0965 47.3525C44.877 43.0035 45.8241 38.3586 45.8885 33.6597H33.6611V45.3493Z" fill="#F7F9FC"/>
<path d="M33.6611 31.3388H45.887C45.8245 26.6376 44.8783 21.9901 43.098 17.6385C40.0844 18.8226 36.8958 19.5005 33.6611 19.6447V31.3388Z" fill="#F7F9FC"/>
<path d="M56.7598 33.6597H48.2285C48.1623 38.6781 47.153 43.6393 45.2533 48.2847C46.5409 48.883 47.7866 49.5675 48.9819 50.3336C53.6645 46.0134 56.4585 40.0237 56.7598 33.6597Z" fill="#F7F9FC"/>
<path d="M48.9805 14.6678C47.7851 15.434 46.5394 16.1186 45.2518 16.7168C47.1519 21.3617 48.1616 26.3224 48.2285 31.3403H56.7613C56.4589 24.9764 53.6638 18.9873 48.9805 14.6678Z" fill="#F7F9FC"/>
<path d="M44.2576 14.6206C45.234 14.1673 46.1849 13.6608 47.1058 13.1034C45.1496 11.622 42.9792 10.4469 40.6693 9.61853C42.1024 11.1024 43.3113 12.7875 44.2576 14.6206Z" fill="#F7F9FC"/>
<path d="M33.6611 8.29932V17.2959C36.5497 17.1688 39.3992 16.5787 42.1008 15.5483C39.9144 11.4843 36.9628 8.81193 33.6611 8.30079V8.29932Z" fill="#F7F9FC"/>
<path d="M31.3477 8.29932C28.0475 8.80898 25.0959 11.4828 22.9081 15.5468C25.6096 16.5773 28.4591 17.1673 31.3477 17.2944V8.29932Z" fill="#F7F9FC"/>
<path d="M16.2382 4.46722C16.103 4.54095 15.984 4.64103 15.8881 4.76154C15.7923 4.88205 15.7215 5.02055 15.6801 5.16886C15.6387 5.31717 15.6274 5.47228 15.6469 5.62502C15.6665 5.77776 15.7164 5.92504 15.7938 6.05815C15.8713 6.19125 15.9746 6.3075 16.0977 6.4C16.2208 6.49251 16.3612 6.5594 16.5106 6.59674C16.66 6.63407 16.8153 6.64107 16.9675 6.61734C17.1196 6.59362 17.2655 6.53963 17.3964 6.45859C36.9895 -5.26505 62.8993 9.63472 62.6068 32.4955C62.6121 37.8043 61.2054 43.0191 58.531 47.6051C57.9549 48.591 57.321 49.5421 56.6328 50.4532C55.6209 49.9628 54.465 49.8582 53.3816 50.1591C52.2981 50.46 51.3617 51.1458 50.7477 52.0878C50.1338 53.0298 49.8845 54.1634 50.0466 55.2761C50.2087 56.3887 50.7711 57.4041 51.6283 58.1318C52.4856 58.8594 53.5788 59.2494 54.703 59.2287C55.8272 59.208 56.9053 58.7779 57.7351 58.0191C58.5649 57.2603 59.0894 56.2249 59.2104 55.107C59.3314 53.9891 59.0405 52.8655 58.3922 51.9468C59.1774 50.9353 59.8931 49.8717 60.5342 48.7632C76.932 19.986 45.0229 -11.932 16.2382 4.46722Z" fill="#F7F9FC"/>
<path d="M47.614 58.5355C19.2046 74.5373 -10.8136 40.9234 8.37762 14.5408C9.38966 15.0309 10.5457 15.135 11.629 14.8337C12.7124 14.5323 13.6486 13.8461 14.2621 12.9038C14.8757 11.9615 15.1245 10.8277 14.9619 9.7151C14.7992 8.60246 14.2363 7.58735 13.3787 6.86007C12.5211 6.1328 11.4277 5.74331 10.3034 5.76462C9.17916 5.78594 8.10128 6.2166 7.27186 6.97587C6.44244 7.73513 5.91844 8.77086 5.7981 9.88886C5.67776 11.0069 5.96935 12.1304 6.61819 13.0488C-14.1981 41.4863 18.0227 77.7769 48.7722 60.5268C48.9074 60.4531 49.0264 60.353 49.1222 60.2325C49.2181 60.112 49.2888 59.9735 49.3303 59.8252C49.3717 59.6769 49.383 59.5218 49.3634 59.369C49.3439 59.2163 49.2939 59.069 49.2165 58.9359C49.1391 58.8028 49.0358 58.6866 48.9127 58.594C48.7896 58.5015 48.6492 58.4346 48.4998 58.3973C48.3504 58.36 48.1951 58.353 48.0429 58.3767C47.8908 58.4004 47.7449 58.4544 47.614 58.5355Z" fill="#F7F9FC"/>
</g>
<defs>
<clipPath id="clip0_9_589">
<rect width="65" height="65" fill="white"/>
</clipPath>
</defs>
</svg>

<svg width="65" height="65" viewBox="0 0 65 65" fill="none" xmlns="http://www.w3.org/2000/svg"><g clip-path="url(#clip0_9_589)" fill="#F7F9FC"><path d="M33.661 56.695c3.3-.51 6.252-3.184 8.44-7.248a27.011 27.011 0 00-8.44-1.741v8.989zm7.007-1.321a24.187 24.187 0 006.436-3.485 29.467 29.467 0 00-2.846-1.516 21.192 21.192 0 01-3.59 5.001zm-19.914-5.001a29.46 29.46 0 00-2.848 1.518 24.189 24.189 0 006.437 3.485 21.197 21.197 0 01-3.589-5.002zm10.594 6.322v-8.99a27.009 27.009 0 00-8.44 1.748c2.188 4.058 5.141 6.732 8.44 7.242zM20.754 14.62a21.2 21.2 0 013.59-5.001 24.186 24.186 0 00-6.437 3.484 29.48 29.48 0 002.847 1.518zM8.25 33.66a24.246 24.246 0 007.781 16.67 31.527 31.527 0 013.73-2.045 40.034 40.034 0 01-2.978-14.625H8.251zm0-2.32h8.533a40.035 40.035 0 012.976-14.625 31.526 31.526 0 01-3.73-2.049A24.246 24.246 0 008.25 31.34l.002.001zm23.098 2.32H19.12c.064 4.7 1.01 9.345 2.79 13.696a29.38 29.38 0 019.436-2.004l.002-11.692zm0-14.015a29.383 29.383 0 01-9.437-2.006 37.499 37.499 0 00-2.79 13.695h12.227v-11.69zm2.313 25.705c3.234.143 6.422.82 9.435 2.002A37.496 37.496 0 0045.89 33.66H33.66v11.69zm0-14.011h12.226a37.498 37.498 0 00-2.789-13.7 29.383 29.383 0 01-9.437 2.006v11.694zM56.76 33.66h-8.532a40.033 40.033 0 01-2.975 14.625 31.54 31.54 0 013.729 2.049A24.246 24.246 0 0056.76 33.66zm-7.78-18.992a31.522 31.522 0 01-3.728 2.049 40.033 40.033 0 012.976 14.623h8.533a24.247 24.247 0 00-7.78-16.672zm-4.722-.048c.976-.453 1.927-.96 2.848-1.517a24.185 24.185 0 00-6.437-3.484 21.197 21.197 0 013.589 5.002zM33.661 8.3v8.996a27.015 27.015 0 008.44-1.748c-2.187-4.064-5.138-6.736-8.44-7.247v-.002zm-2.313 0c-3.3.509-6.252 3.183-8.44 7.247a27.011 27.011 0 008.44 1.747V8.3z"/><path d="M16.238 4.467a1.153 1.153 0 101.158 1.992C36.99-5.265 62.9 9.635 62.606 32.496a29.934 29.934 0 01-4.075 15.11 29.001 29.001 0 01-1.898 2.847 4.62 4.62 0 101.76 1.494 28.286 28.286 0 002.141-3.184C76.932 19.986 45.023-11.932 16.238 4.467zm31.376 54.068C19.204 74.537-10.814 40.924 8.378 14.541a4.62 4.62 0 10-1.76-1.492c-20.816 28.437 11.405 64.728 42.154 47.478a1.15 1.15 0 00-.272-2.13 1.153 1.153 0 00-.886.139z"/></g><defs><clipPath id="clip0_9_589"><rect width="65" height="65" fill="#fff"/></clipPath></defs></svg>
